X:7791
T:Untitled Reel #4
O:england
M:4/4
L:1/8
Q:240
S:Lee Cremo
R:reel
K:G
GA | B2 BG DGBd | c2 cB Aceg | f2 fe dfaf | {a}gfga gedc |
B2 BA GBdB | c2 cB Aceg | f2 fe dcBA | G2 B2 G2 :||
ef | g2 ga gdBd | (3ccc cB Aceg | f2 fe dfaf | {a}gfga gdBd |
g2 ga gdBd | (3ccc cB Aceg | f2 fe dcBA | G2 B2 G2 :||


